pocket.svg

<svg fill="currentColor" viewBox="0 0 24 24"><path d="M4 3h16v14.63l-8 4.62-8-4.62zm14 6H6v7.5l6 3.44 6-3.44zm0-4H6v2h12z"/></svg>

<svg  viewBox="0 0 24 24" fill="currentColor"><path  d="M4 3H20V17.63L12 22.25L4 17.63V3M18 9H6V16.5L12 19.94L18 16.5V9M18 5H6V7H18V5Z"/></svg>
